abel/img/sprite/insta-black.svg

<svg width="28" height="28" viewBox="0 0 28 28" fill="none" xmlns="http://www.w3.org/2000/svg">
<path d="M27.237 8.57059C27.2217 7.42422 27.0071 6.28925 26.6028 5.21645C26.2522 4.31155 25.7167 3.48973 25.0304 2.80351C24.3442 2.11729 23.5224 1.58176 22.6175 1.23114C21.5585 0.8336 20.4397 0.618645 19.3088 0.595425C17.8527 0.53034 17.391 0.512177 13.6948 0.512177C9.99861 0.512177 9.52485 0.512177 8.07936 0.595425C6.94894 0.618816 5.83068 0.833768 4.77214 1.23114C3.8671 1.58152 3.04516 2.11696 2.35891 2.80321C1.67266 3.48946 1.13721 4.3114 0.786831 5.21645C0.388499 6.27466 0.17401 7.39317 0.152633 8.52367C0.0875479 9.98127 0.0678711 10.4429 0.0678711 14.1391C0.0678711 17.8353 0.0678711 18.3076 0.152633 19.7546C0.175337 20.8868 0.388754 22.0038 0.786831 23.0648C1.1378 23.9696 1.67364 24.7912 2.36012 25.4772C3.0466 26.1631 3.86862 26.6983 4.77366 27.0486C5.82929 27.4621 6.94775 27.6925 8.08087 27.7297C9.53847 27.7948 10.0001 27.8145 13.6963 27.8145C17.3925 27.8145 17.8663 27.8145 19.3118 27.7297C20.4427 27.7075 21.5615 27.493 22.6205 27.0956C23.5252 26.7445 24.3468 26.2088 25.033 25.5227C25.7191 24.8365 26.2548 24.0149 26.6058 23.1102C27.0039 22.0507 27.2173 20.9337 27.24 19.8C27.3051 18.3439 27.3248 17.8823 27.3248 14.1845C27.3218 10.4883 27.3218 10.0191 27.237 8.57059ZM13.6857 21.1289C9.82 21.1289 6.68836 17.9973 6.68836 14.1316C6.68836 10.2658 9.82 7.13418 13.6857 7.13418C15.5416 7.13418 17.3214 7.8714 18.6336 9.18367C19.9459 10.4959 20.6831 12.2757 20.6831 14.1316C20.6831 15.9874 19.9459 17.7672 18.6336 19.0795C17.3214 20.3917 15.5416 21.1289 13.6857 21.1289ZM20.9616 8.50702C20.058 8.50702 19.33 7.77746 19.33 6.87536C19.33 6.66118 19.3721 6.44911 19.4541 6.25124C19.5361 6.05336 19.6562 5.87357 19.8076 5.72213C19.9591 5.57069 20.1389 5.45056 20.3367 5.3686C20.5346 5.28663 20.7467 5.24445 20.9609 5.24445C21.175 5.24445 21.3871 5.28663 21.585 5.3686C21.7829 5.45056 21.9626 5.57069 22.1141 5.72213C22.2655 5.87357 22.3857 6.05336 22.4676 6.25124C22.5496 6.44911 22.5918 6.66118 22.5918 6.87536C22.5918 7.77746 21.8622 8.50702 20.9616 8.50702Z" fill="black"/>
<path d="M13.6855 18.6767C16.1958 18.6767 18.2308 16.6417 18.2308 14.1313C18.2308 11.621 16.1958 9.586 13.6855 9.586C11.1752 9.586 9.14014 11.621 9.14014 14.1313C9.14014 16.6417 11.1752 18.6767 13.6855 18.6767Z" fill="black"/>
</svg>

<svg width="28" height="28" fill="none" xmlns="http://www.w3.org/2000/svg"><path d="M27.237 8.57a9.885 9.885 0 0 0-.634-3.354 6.976 6.976 0 0 0-3.986-3.985A9.999 9.999 0 0 0 19.31.595C17.853.53 17.39.512 13.695.512c-3.696 0-4.17 0-5.616.083a9.999 9.999 0 0 0-3.307.636A6.973 6.973 0 0 0 .787 5.216a9.92 9.92 0 0 0-.634 3.308C.088 9.98.068 10.443.068 14.139s0 4.169.085 5.616a9.982 9.982 0 0 0 .634 3.31 6.978 6.978 0 0 0 3.987 3.984 9.964 9.964 0 0 0 3.307.68c1.457.066 1.92.085 5.615.085 3.696 0 4.17 0 5.616-.084a9.975 9.975 0 0 0 3.308-.634 6.988 6.988 0 0 0 3.986-3.986 9.967 9.967 0 0 0 .634-3.31c.065-1.456.085-1.918.085-5.616-.003-3.696-.003-4.165-.088-5.613zM13.686 21.13a6.996 6.996 0 0 1-6.998-6.997 6.996 6.996 0 0 1 11.946-4.948 6.997 6.997 0 0 1-4.948 11.945zm7.276-12.622a1.63 1.63 0 0 1-1.154-2.785 1.632 1.632 0 1 1 1.154 2.785z" fill="#000"/><path d="M13.685 18.677a4.545 4.545 0 1 0 0-9.09 4.545 4.545 0 0 0 0 9.09z" fill="#000"/></svg>
